svgs/light/arrow-down-small-big.svg

<svg xmlns="http://www.w3.org/2000/svg" viewBox="0 0 512 512"><!-- Font Awesome Pro 6.0.0-alpha2 by @fontawesome - https://fontawesome.com License - https://fontawesome.com/license (Commercial License) --><path d="M336 192H399.998C426.398 192 447.998 170.398 447.998 144V80C447.998 53.602 426.398 32 399.998 32H336C309.6 32 288 53.602 288 80V144C288 170.398 309.6 192 336 192ZM320 80C320 71.328 327.328 64 336 64H399.998C408.672 64 415.998 71.328 415.998 80V144C415.998 152.672 408.672 160 399.998 160H336C327.328 160 320 152.672 320 144V80ZM464 256H336C309.49 256 288 277.492 288 304V432C288 458.508 309.49 480 336 480H464C490.51 480 512 458.508 512 432V304C512 277.492 490.51 256 464 256ZM480 432C480 440.824 472.822 448 464 448H336C327.178 448 320 440.824 320 432V304C320 295.176 327.178 288 336 288H464C472.822 288 480 295.176 480 304V432ZM224 352C219.906 352 215.812 353.562 212.687 356.688L144 425.375V48C144 39.156 136.844 32 128 32S112 39.156 112 48V425.375L43.312 356.688C37.062 350.438 26.937 350.438 20.687 356.688S14.437 373.063 20.687 379.312L116.687 475.312C122.937 481.562 133.063 481.562 139.312 475.312L235.312 379.312C241.562 373.062 241.562 362.937 235.312 356.688C232.187 353.562 228.094 352 224 352Z"/></svg>

<svg xmlns="http://www.w3.org/2000/svg" viewBox="0 0 512 512"><!--! Font Awesome Pro 6.3.0 by @fontawesome - https://fontawesome.com License - https://fontawesome.com/license (Commercial License) Copyright 2023 Fonticons, Inc. --><path d="M336 192h63.1c26.4 0 48-21.6 48-48v-64c0-26.4-21.6-48-48-48H336C309.6 32 288 53.6 288 80v64C288 170.4 309.6 192 336 192zM320 80C320 71.33 327.3 64 336 64h63.1c8.674 0 16 7.328 16 16v64c0 8.672-7.326 16-16 16H336C327.3 160 320 152.7 320 144V80zM464 256h-128C309.5 256 288 277.5 288 304v128c0 26.51 21.49 48 48 48h128c26.51 0 48-21.49 48-48v-128C512 277.5 490.5 256 464 256zM480 432c0 8.824-7.178 16-16 16h-128c-8.822 0-16-7.176-16-16v-128C320 295.2 327.2 288 336 288h128C472.8 288 480 295.2 480 304V432zM224 352c-4.094 0-8.188 1.562-11.31 4.688L144 425.4V48C144 39.16 136.8 32 128 32S112 39.16 112 48v377.4l-68.69-68.69c-6.25-6.25-16.38-6.25-22.62 0s-6.25 16.38 0 22.62l96 96c6.25 6.25 16.38 6.25 22.62 0l96-96c6.25-6.25 6.25-16.38 0-22.62C232.2 353.6 228.1 352 224 352z"/></svg>
